images_elementary_svg/cmd/sc_printersetup.svg

<svg height="16" width="16" xmlns="http://www.w3.org/2000/svg" xmlns:xlink="http://www.w3.org/1999/xlink"><linearGradient id="a" gradientTransform="matrix(.4054 0 0 .5135 .266 -2.324)" gradientUnits="userSpaceOnUse" x1="23.940874" x2="24.010853" y1="8.341165" y2="29.842258"><stop offset="0" stop-color="#fff"/><stop offset="0" stop-color="#fff" stop-opacity=".235"/><stop offset="1" stop-color="#fff" stop-opacity=".157"/><stop offset="1" stop-color="#fff" stop-opacity=".392"/></linearGradient><linearGradient id="b" gradientUnits="userSpaceOnUse" x1="11.7" x2="11.7" y1="1.834" y2="12.026"><stop offset="0" stop-color="#f6f6f6"/><stop offset="1" stop-color="#e6e6e6"/></linearGradient><linearGradient id="c" gradientUnits="userSpaceOnUse" x1="9.7" x2="9.7" y1="2.783" y2="15.8025"><stop offset="0" stop-color="#888"/><stop offset="1" stop-color="#626262"/></linearGradient><linearGradient id="d" gradientTransform="matrix(0 0 0 0 8.7 8.7)" gradientUnits="userSpaceOnUse" x1="86.133" x2="84.639" y1="105.105" y2="20.895"><stop offset="0" stop-color="#efefef"/><stop offset="1" stop-color="#c9c9c9"/></linearGradient><path d="m2.868 14.5c.008.36.03.914.342.99 3.3.02 6.28.003 9.58.01.34.015.353-.622.342-1z" fill="#505050" stroke="#565656" stroke-linecap="square"/><g stroke-linecap="round"><path d="m.647 6.556.748-3.05 13.216.003.716 3.062z" fill="#4f4f4f" fill-rule="evenodd"/><path d="m1.225 6.517h13.55c.402 0 .725.348.725.78v6.203h-15v-6.203c0-.432.323-.78.725-.78z" fill="#4f4f4f"/><path d="m1.225 6.517h13.55c.402 0 .725.348.725.78v6.203h-15v-6.203c0-.432.323-.78.725-.78z" fill="none" opacity=".71" stroke="#393939" stroke-linejoin="round"/><path d="m12 8h2v2h-2z" fill="#0cceff"/><path d="m.647 6.556.748-3.05 13.216.003.716 3.062z" fill="none" opacity=".7" stroke="#393939" stroke-linecap="butt"/></g><path d="m13 11v3.506c0 .274-.07.494-.156.494h-9.688c-.086 0-.156-.22-.156-.494v-3.506z" fill="#e9e9e9"/><path d="m3.483.498 9.027.002v4.856h-9.027z" fill="#e9e9e9" stroke="#8c8c8c" stroke-linejoin="round" stroke-width=".995"/><path d="m10.718 10.03c-1.375.5-2.087 2.027-1.587 3.402s2.027 2.087 3.402 1.587 2.087-2.027 1.587-3.402-2.027-2.087-3.402-1.587zm.42 1.152c.74-.27 1.56.113 1.83.855.27.74-.113 1.56-.855 1.83-.74.27-1.56-.112-1.83-.854-.27-.74.112-1.56.854-1.83z" opacity=".05"/><path d="m11.22 8c-.125 0-.22.095-.22.22v.624c-.277.07-.526.186-.766.328l-.454-.452c-.087-.09-.223-.09-.31 0l-.75.75c-.09.087-.09.223 0 .31l.452.454c-.142.24-.257.49-.328.766h-.624c-.125 0-.22.095-.22.22v1.06c0 .125.095.22.22.22h.624c.07.277.186.526.328.766l-.453.453c-.09.087-.09.223 0 .31l.75.75c.087.09.223.09.31 0l.454-.452c.24.142.49.257.766.328v.625c0 .125.095.22.22.22h1.06c.125 0 .22-.095.22-.22v-.624c.277-.07.526-.186.766-.328l.453.453c.087.09.223.09.31 0l.75-.75c.09-.087.09-.223 0-.31l-.452-.454c.142-.24.257-.49.328-.766h.625c.125 0 .22-.095.22-.22v-1.06c0-.125-.095-.22-.22-.22h-.624c-.07-.277-.186-.526-.328-.766l.453-.453c.09-.087.09-.223 0-.31l-.75-.75c-.087-.09-.223-.09-.31 0l-.454.452c-.24-.142-.49-.257-.766-.328v-.626c0-.125-.095-.22-.22-.22zm.53 2.75c.552 0 1 .448 1 1s-.448 1-1 1-1-.448-1-1 .448-1 1-1z" display="block" fill="url(#b)" stroke="url(#c)" stroke-linejoin="round" stroke-width=".527" transform="matrix(1.1 -.4 .4 1.1 -6.283018 3.115882)"/><g fill="none"><path d="m11.75 9.75c-1.103 0-2 .897-2 2s.897 2 2 2 2-.897 2-2-.897-2-2-2z" stroke="url(#d)" stroke-width=".879" transform="matrix(1.1 -.4 .4 1.1 -6.283018 3.115882)"/><path d="m11.511 4.5h-7.011v-3h7z" stroke="url(#a)" stroke-linecap="round"/></g></svg>

<?xml version="1.0" encoding="UTF-8" standalone="no"?>
<svg
   xmlns:dc="http://purl.org/dc/elements/1.1/"
   xmlns:cc="http://creativecommons.org/ns#"
   xmlns:rdf="http://www.w3.org/1999/02/22-rdf-syntax-ns#"
   xmlns:svg="http://www.w3.org/2000/svg"
   xmlns="http://www.w3.org/2000/svg"
   xmlns:sodipodi="http://sodipodi.sourceforge.net/DTD/sodipodi-0.dtd"
   xmlns:inkscape="http://www.inkscape.org/namespaces/inkscape"
   height="16"
   width="16"
   version="1.1"
   id="svg41"
   sodipodi:docname="sc_printersetup.svg"
   inkscape:export-filename="/home/rizmut/Dokumen/Rizmut/Github/libreoffice-style-elementary/images_elementary/cmd/sc_printersetup.png"
   inkscape:export-xdpi="96"
   inkscape:export-ydpi="96"
   inkscape:version="0.92.4 (unknown)">
  <metadata
     id="metadata47">
    <rdf:RDF>
      <cc:Work
         rdf:about="">
        <dc:format>image/svg+xml</dc:format>
        <dc:type
           rdf:resource="http://purl.org/dc/dcmitype/StillImage" />
      </cc:Work>
    </rdf:RDF>
  </metadata>
  <defs
     id="defs45">
    <linearGradient
       id="f"
       gradientTransform="matrix(0.4054,0,0,0.5135,0.266,-2.324)"
       gradientUnits="userSpaceOnUse"
       x1="23.940874"
       x2="24.010853"
       y1="8.3411646"
       y2="29.842258">
      <stop
         offset="0"
         stop-color="#fff"
         id="stop23" />
      <stop
         offset="0"
         stop-color="#fff"
         stop-opacity=".235"
         id="stop25" />
      <stop
         offset="1"
         stop-color="#fff"
         stop-opacity=".157"
         id="stop27" />
      <stop
         offset="1"
         stop-color="#fff"
         stop-opacity=".392"
         id="stop29" />
    </linearGradient>
  </defs>
  <sodipodi:namedview
     pagecolor="#ffffff"
     bordercolor="#666666"
     borderopacity="1"
     objecttolerance="10"
     gridtolerance="10"
     guidetolerance="10"
     inkscape:pageopacity="0"
     inkscape:pageshadow="2"
     inkscape:window-width="1366"
     inkscape:window-height="714"
     id="namedview43"
     showgrid="false"
     inkscape:zoom="14.75"
     inkscape:cx="-4.4824812"
     inkscape:cy="5.095458"
     inkscape:window-x="0"
     inkscape:window-y="28"
     inkscape:window-maximized="1"
     inkscape:current-layer="svg41" />
  <linearGradient
     id="a"
     gradientUnits="userSpaceOnUse"
     x1="11.7"
     x2="11.7"
     y1="1.834"
     y2="12.026">
    <stop
       offset="0"
       stop-color="#f6f6f6"
       id="stop2" />
    <stop
       offset="1"
       stop-color="#e6e6e6"
       id="stop4" />
  </linearGradient>
  <linearGradient
     id="b"
     gradientUnits="userSpaceOnUse"
     x1="9.7"
     x2="9.7"
     y1="2.783"
     y2="15.8025">
    <stop
       offset="0"
       stop-color="#888"
       id="stop7" />
    <stop
       offset="1"
       stop-color="#626262"
       id="stop9" />
  </linearGradient>
  <linearGradient
     id="c"
     gradientTransform="matrix(0,0,0,0,8.7,8.7)"
     gradientUnits="userSpaceOnUse"
     x1="86.133"
     x2="84.639"
     y1="105.105"
     y2="20.895">
    <stop
       offset="0"
       stop-color="#efefef"
       id="stop12" />
    <stop
       offset="1"
       stop-color="#c9c9c9"
       id="stop14" />
  </linearGradient>
  <path
     d="m2.868 14.5c.008.36.03.914.342.99 3.3.02 6.28.003 9.58.01.34.015.353-.622.342-1z"
     fill="#505050"
     stroke="#565656"
     stroke-linecap="square"
     id="path17" />
  <g
     stroke-linecap="round"
     id="g29">
    <path
       d="m.647 6.556.748-3.05 13.216.003.716 3.062z"
       fill="#4f4f4f"
       fill-rule="evenodd"
       id="path19" />
    <path
       d="m1.225 6.517h13.55c.402 0 .725.348.725.78v6.203h-15v-6.203c0-.432.323-.78.725-.78z"
       fill="#4f4f4f"
       id="path21" />
    <path
       d="m1.225 6.517h13.55c.402 0 .725.348.725.78v6.203h-15v-6.203c0-.432.323-.78.725-.78z"
       fill="none"
       opacity=".71"
       stroke="#393939"
       stroke-linejoin="round"
       id="path23" />
    <path
       d="m12 8h2v2h-2z"
       fill="#0cceff"
       id="path25" />
    <path
       d="m.647 6.556.748-3.05 13.216.003.716 3.062z"
       fill="none"
       opacity=".7"
       stroke="#393939"
       stroke-linecap="butt"
       id="path27" />
  </g>
  <path
     d="m13 11v3.506c0 .274-.07.494-.156.494h-9.688c-.086 0-.156-.22-.156-.494v-3.506z"
     fill="#e9e9e9"
     id="path31" />
  <path
     d="m3.483.498 9.027.002v4.856h-9.027z"
     fill="#e9e9e9"
     stroke="#8c8c8c"
     stroke-linejoin="round"
     stroke-width=".995"
     id="path33" />
  <path
     d="m10.718 10.03c-1.375.5-2.087 2.027-1.587 3.402s2.027 2.087 3.402 1.587 2.087-2.027 1.587-3.402-2.027-2.087-3.402-1.587zm.42 1.152c.74-.27 1.56.113 1.83.855.27.74-.113 1.56-.855 1.83-.74.27-1.56-.112-1.83-.854-.27-.74.112-1.56.854-1.83z"
     opacity=".05"
     id="path37" />
  <g
     id="g872"
     transform="translate(-0.28301834,-1.1841183)">
    <path
       transform="matrix(1.1,-0.4,0.4,1.1,-6,4.3)"
       id="path35"
       display="block"
       d="M 11.22,8 C 11.095,8 11,8.095 11,8.22 V 8.844 C 10.723,8.914 10.474,9.03 10.234,9.172 L 9.78,8.72 C 9.693,8.63 9.557,8.63 9.47,8.72 L 8.72,9.47 c -0.09,0.087 -0.09,0.223 0,0.31 l 0.452,0.454 C 9.03,10.474 8.915,10.724 8.844,11 H 8.22 C 8.095,11 8,11.095 8,11.22 v 1.06 c 0,0.125 0.095,0.22 0.22,0.22 h 0.624 c 0.07,0.277 0.186,0.526 0.328,0.766 l -0.453,0.453 c -0.09,0.087 -0.09,0.223 0,0.31 l 0.75,0.75 c 0.087,0.09 0.223,0.09 0.31,0 l 0.454,-0.452 c 0.24,0.142 0.49,0.257 0.766,0.328 v 0.625 c 0,0.125 0.095,0.22 0.22,0.22 h 1.06 c 0.125,0 0.22,-0.095 0.22,-0.22 v -0.624 c 0.277,-0.07 0.526,-0.186 0.766,-0.328 l 0.453,0.453 c 0.087,0.09 0.223,0.09 0.31,0 l 0.75,-0.75 c 0.09,-0.087 0.09,-0.223 0,-0.31 l -0.452,-0.454 c 0.142,-0.24 0.257,-0.49 0.328,-0.766 h 0.625 c 0.125,0 0.22,-0.095 0.22,-0.22 v -1.06 c 0,-0.125 -0.095,-0.22 -0.22,-0.22 h -0.624 c -0.07,-0.277 -0.186,-0.526 -0.328,-0.766 L 14.78,9.782 c 0.09,-0.087 0.09,-0.223 0,-0.31 l -0.75,-0.75 c -0.087,-0.09 -0.223,-0.09 -0.31,0 L 13.266,9.174 C 13.026,9.032 12.776,8.917 12.5,8.846 V 8.22 C 12.5,8.095 12.405,8 12.28,8 Z m 0.53,2.75 c 0.552,0 1,0.448 1,1 0,0.552 -0.448,1 -1,1 -0.552,0 -1,-0.448 -1,-1 0,-0.552 0.448,-1 1,-1 z"
       style="display:block;fill:url(#a);stroke:url(#b);stroke-width:0.52700001;stroke-linejoin:round"
       inkscape:connector-curvature="0" />
    <path
       id="path39"
       transform="matrix(1.1,-0.4,0.4,1.1,-6,4.3)"
       d="m 11.75,9.75 c -1.103,0 -2,0.897 -2,2 0,1.103 0.897,2 2,2 1.103,0 2,-0.897 2,-2 0,-1.103 -0.897,-2 -2,-2 z"
       style="fill:none;stroke:url(#c);stroke-width:0.87900001"
       inkscape:connector-curvature="0" />
  </g>
  <path
     inkscape:connector-curvature="0"
     style="fill:none;stroke:url(#f);stroke-linecap:round"
     d="M 11.511,4.5 H 4.5 v -3 h 7 z"
     id="path62"
     sodipodi:nodetypes="ccccc" />
</svg>
